!!!OTL: UNSRE BUBEN SIND WILD
!!!ARE: Europa, Mitteleuropa, Deutschland
!!!SCT: F1117
!!!YEM: Copyright 1995, estate of Helmut Schaffrath.
**kern
*ICvox
*Ivox
*M3/4
*k[b-e-]
*B-:
{8f
8e-
=1
8d
8f
4.dd
8cc
=2
8b-
8d
4.f}
{8b-
=3
8a
8c
4.e-
8a
=4
8b-
8d
4.f}
{8e-
=5
8d
8f
4.dd
8cc
=6
8b-
8d
4.f}
{8b-
=7
8a
8c
8e-
8f
8a
8cc
=8
4b-
4r}
{8dd
8dd
=9
8cc
8b-
4.g
8en
=10
8f
8a
4.cc}
{8cc
=11
8dd
8cc
8b-
8c
8en
8g
=12
8f
8a
4.ff}
{8dd
=13
8cc
8b-
4.g
8en
=14
8f
8a
4.cc}
{8cc
=15
8dd
8cc
8b-
8c
8en
8g
=16
4f
4r}
{8f
8e-
=17
8d
8f
4.dd
8cc
=18
8b-
8d
4.f}
{8b-
=19
8a
8c
4.e-
8a
=20
8b-
8d
4.f}
{8e-
=21
8d
8f
4.dd
8cc
=22
8b-
8d
4f}
{4ff
=23
8gg
8ff
8ee-
8f
8a
8cc
=24
4b-
4r}
{4ff
=25
8gg
8ff
8ee-
8f
4cc
=26
8ee-
8dd
8b-
8d
4f}
=27
{4f
8ee-
8f
4cc
=28
4f
8dd
8f
4b-}
=29
{8gg
8ff
8ee-
8f
4cc
=30
8ee-
8dd
8b-
8d
4f}
=31
{4f
8ee-
8f
8cc
8f
=32
4b-
4r}
==
!!!AGN: Liebes - Lied; Jodler
!!!ONB: ESAC (Essen Associative Code) Database: FINK
!!!AMT: simple triple
!!!AIN: vox
!!!EED: Helmut Schaffrath
!!!EEV: 1.0
*-
